X: 41078
T: Trip To Pakistan, The
R: reel
M: 4/4
K: Eminor
|:EGBE G3 B|A3 G FGAF|EGBE G3 B|AGFG E4:|
|:EGBE c3 A|B3 c BABG|EGBE c3 A|BAGB A4:|
|:FGBF GBFG|EFGE FGEF|DFAD FADF|AGFG E4:|

